X:45
T:Brave Protect the Fair. VWMLa.045
%%VWML:Anon2-3049-p28-0
F:http://www.vwml.org/record/Anon2/3049/p28
S:Anon. MS, late 18thC, Vaughan Williams Mem. Library
O:England;Yorkshire
Z:vmp/efdss.Simon Wilson. Reviewed PJH 2008.
M:C
L:1/8
Q:2/4=90
K:C
cGEG cGEG|c2ec d2d2|\
cGEG cGEG|c2ge c4:|\
|:g2(ge) (ge)(ge)|a2(af) (af)(af)|
egec dfdB|c2cc c2:|\
|:E2(EC) (EC)(EC)|F2(FD) (FD)(FD)|\
(Ec)(Ec) (DB)(DB)|c2cc c2:|
T:Now or Never. VWMLa.046
R:Reel
S:Anon. MS, late 18thC, Vaughan Williams Mem. Library
O:England;Yorkshire
Z:vmp/efdss.Simon Wilson. Reviewed PJH 2008.
M:C
L:1/8
Q:2/4=90
K:D
FDDF GEEG|FDDF d2BG|\
FDDF GEEG|FDEC D2D2:|
|:afdB gecA|afdB g2fe|\
afdB gecA|dBec d2D2:|
